X: 2
T: Eileen O'Keefe's
S: Samus Creagh &amp; Rob Murphy 
M: 2/4
L: 1/8
R: polka
K: Gmaj
|: e |\ 
dB AG/A/ | BG E2 | DE GA | BA Ae |
dB AG/A/ | BG E2 | DE GA | BG G :|
|: A |\
Bd g2 | Bd e2 | Bd e/f/e/ | dB AG |
Bd g2 | Bd ef/e/ | dB AG/A/ | BG G :|
